X:1
T:Songs of Thankfulness and Praise
T:Text: Christopher Wordsworth, 1862, alt. Tune: Jakob Hintze, 1678; harm. after Johann S. Bach, 1685-1750
T:77 77 D SALZBURG www.hymnary.org/text/songs_of_thankfulness_and_praise
T:Songs of Thankfulness and Praise
T:This hymn is in the public domain. You may freely use this score for personal and congregational worship. If you reproduce the score, please credit Hymnary.org as the source. 
T:This hymn is in the public domain. You may freely use this score for personal and congregational worship. If you reproduce the score, please credit Hymnary.org as the source. 
Z:This hymn is in the public domain. You may freely use this score for personal and congregational worship. If you reproduce the score, please credit Hymnary.org as the source.
%%score ( 1 2 ) ( 3 4 )
L:1/8
M:4/4
K:D
V:1 treble nm="SOPRANO ALTO" snm="S. A."
V:2 treble 
V:3 bass nm="TENOR BASS" snm="T. B."
V:4 bass 
V:1
"^1""^2""^3" A2 d2 A2 B2 | A3 G F4 | A2 A2 G2 F2 | E2 E2 D4 | A2 d2 A2 B2 | A3 G F4 | A2 A2 G2 F2 | %7
w: Songs of thank- ful-|ness and praise,|Je- sus, Lord, to|you we raise,|man- i- fest- ed|by the star|to the sa- ges|
w: Man- i- fest at|Jor- dan's stream,|Proph- et, Priest, and|King su- preme;|and at Ca- na,|wed- ding guest,|in your God- head|
w: Man- i- fest in|mak- ing whole|pal- sied limbs and|faint- ing soul;|man- i- fest in|val- iant fight,|quell- ing all the|
 E2 E2 D4 | E2 E2 F^G A2 | A2 ^G2 A4 | B3 c d2 d2 | c2 c2 B4 ||1"^Refrain" F2 F2 B2 A2 | %13
w: from a- far;|Branch of roy- * al|Da- vid's stem,|in your birth at|Beth- le- hem;|"You are Christ," by|
w: man- i- fest,|you re- vealed _ your|power di- vine,|chang- ing wa- ter|in- to wine;||
w: dev- il's might;|man- i- fest * in|gra- cious will,|ev- er bring- ing|good from ill;||
 A2 ^G2 A4 | B2 A2 G2 F2 | E2 E2 D4 |] %16
w: us con- fessed—|God in flesh made|man- i- fest.|
w: |||
w: |||
V:2
 D2 D2 D2 D2 | D2 C2 D4 | E2 D2 B,2 D2 | D2 C2 D4 | D2 D2 D2 D2 | D2 C2 D4 | E2 D2 B,2 D2 | %7
 D2 C2 D4 | C2 C2 D2 C2 | F2 E2 C4 | E2 G2 F2 F2 | F2 E2 D4 ||1 D2 D2 D2 C2 | B,2 D2 C4 | %14
 D2 D2 B,2 D2 | D2 C2 D4 |] %16
V:3
 F,2 F,2 A,2 G,2 | E,2 A,2 A,4 | A,2 F,2 G,2 A,2 | B,2 A,2 F,4 | F,2 F,2 A,2 G,2 | E,2 A,2 A,4 | %6
 A,2 F,2 G,2 A,2 | B,2 A,2 F,4 | A,2 A,2 A,2 A,2 | B,2 B,2 A,4 | G,2 A,2 B,2 B,2 | B,2 ^A,2 B,4 ||1 %12
 A,2 A,2 G,2 E,2 | D,2 E,2 E,4 | G,2 F,2 G,2 A,2 | B,2 A,2 F,4 |] %16
V:4
 D,2 B,,2 F,,2 G,,2 | A,,2 A,,2 D,4 | C,2 D,2 E,2 F,2 | G,2 A,2 D,4 | D,2 B,,2 F,,2 G,,2 | %5
 A,,2 A,,2 D,4 | C,2 D,2 E,2 F,2 | G,2 A,2 D,4 | A,,2 A,,2 D,2 F,2 | D,2 E,2 A,,4 | %10
 E,2 E,2 B,,2 D,2 | F,2 F,2 B,,4 ||1 D,2 D,2 G,,2 A,,2 | B,,2 B,,2 A,,4 | G,,2 D,2 E,2 F,2 | %15
 G,2 A,2 D,4 |] %16

